X: 26148
T: McInerney's
R: hornpipe
M: 4/4
K: Dmajor
|:F>G|A>dc>e d>af>d|A>FD>F A>dc>d|B>dG>B g>fe>d|c<ae>c (3ABA F>G|
A>d (3cde d>af>d|A>FD>F A>dc>d|B>Gg>f e>dc>e|(3ded c>e d2:|
|:A>G|F2 f>d e>df>d|(3FAF f>e d>AF>D|(3EFE e>c d>B^G>B|(3Ace (3aec A2 B>c|
d>cB>A B<Gg>f|e>dc>B c<Aa>g|f>dA>F G>ge>c|(3ded c>e d2:|

